X:1
T:"Indeed! Then You Shant" -- Jig
R:jig
B:Ryan's Mammoth Collection
N: 111 625
Z: Contributed by Ray Davies,  ray:davies99.freeserve.co.uk
M:6/8
L:1/8
K:G
d|\
gfe d2B | cBA Bcd | gfe e2d | cBA G2d |
gfe d2B | cBA GBd | gbg d2B | cBA G2:|
|:G|\
FGA A2B | cBA BAG | FGA A2B | cBA G2G |
FGA A2B | cBA BAG | gbg dcB | cBA G2:|
